X: 14002
T: AMY LARKIN'S
C: Bob McQuillen 30 Nov'08
B: Bob's Note Book 14 #2
%R: reel
%D:2008
Z: 2020 John Chambers <jc:trillian.mit.edu>
M: C
L: 1/8
K: D
dB \
| A2FD EFDE | FDFA BAdB | A2FA BAdB | ABde fedB |
| A2FD EFDE | FDFA BAde | fded BAdB | ABde fe :|
|: df \
| a2fd BAdB | ABde fedf | a2fd BAdB | AFDE FEFA |
| B2BA FABd | ABde fedf | a2fd BAdf | afef d2 :|
%%begintext align
%% Amy Larkin
%% is a really fine fiddler who hails from Sandwich,
%% MA. Steve Zakon-Anderson gets her to occasionally come
%% up to Peterborough for his 1st Saturday dance, and
%% lucky me, I get to play piano with her. Thanks
%% Steve, for making that happen; it's always a great
%% night of music; I love playing with you, Amy!
%%endtext

%%sep 1 1 500

%%sep 1 1 500

